X:164
T:Air
O:england
M:6/8
L:1/8
C:Pleyel
N:Probably Ignaz Joseph Pleyel 1757 - 183
K:G major
dzd d>ed|(c3B2)B|c2d e>dc|(B3A2)z|dzd d>ed|(c3B)zB|c>deB2A|(A3G2)z:||:Az
A A>Bc|{c}B2AA2B|^c2de2f|(d3d2)d|dzd d>e d|(c3B)zB|c>de B2A2|)A3G2)z:||


